imgs/aps/animations/aps-animation-5-1.svg

<svg width="257" height="639" viewBox="0 0 257 639" fill="none" xmlns="http://www.w3.org/2000/svg">
<g clip-path="url(#clip0)">
<path d="M120.944 622.976H76.9581C70.8335 623.533 64.7088 625.204 63.5952 630.217C63.5952 630.217 63.0384 633.56 63.0384 636.902C64.7088 638.573 123.171 636.902 123.171 636.902C129.296 629.103 120.944 622.976 120.944 622.976Z" fill="#58C4C5"/>
<path d="M62.4813 636.902H122.614L122.057 639.13H62.4813V636.902Z" fill="white"/>
<path d="M103.128 622.976H99.2301L100.9 627.989H104.241L103.128 622.976Z" fill="white"/>
<path d="M94.7759 622.976H90.8783L91.9919 627.989H95.8894L94.7759 622.976Z" fill="white"/>
<path d="M123.729 607.936L120.945 622.419C117.604 624.09 112.593 624.09 109.252 622.976L108.695 622.419L106.468 607.936H123.729Z" fill="#F8B68F"/>
<path d="M223.95 622.976H179.964C173.839 623.533 167.714 625.204 166.601 630.217C166.601 630.217 166.044 633.56 166.044 636.902C167.714 638.573 226.177 636.902 226.177 636.902C232.302 629.103 223.95 622.976 223.95 622.976Z" fill="#58C4C5"/>
<path d="M165.487 636.902H225.62L225.063 639.13H165.487V636.902Z" fill="white"/>
<path d="M206.689 622.976H202.792L203.905 627.989H207.803L206.689 622.976Z" fill="white"/>
<path d="M197.781 622.976H193.884L195.554 627.989H198.895L197.781 622.976Z" fill="white"/>
<path d="M222.28 607.936L223.95 622.419C220.61 624.09 215.599 624.09 212.258 622.976L211.701 622.419L204.463 607.936H222.28Z" fill="#F8B68F"/>
<path d="M156.021 113.278L192.213 137.231L181.077 166.197C181.077 166.754 180.52 166.754 180.52 167.311C179.963 167.311 178.85 167.311 178.293 167.311C178.293 167.311 178.293 167.311 177.736 167.311C177.736 167.311 177.736 167.311 177.179 167.311C167.714 167.311 159.362 173.439 153.794 181.238C147.67 180.681 142.102 179.566 136.534 176.781C132.636 175.11 129.852 172.882 128.182 170.654C125.398 150.043 156.021 113.278 156.021 113.278Z" fill="#F8B68F"/>
<path d="M109.808 121.077C109.808 121.077 105.354 163.413 114.262 190.151C110.365 193.493 94.7749 210.204 89.7638 189.037C84.7527 167.869 95.3317 113.835 95.3317 113.835L109.808 121.077Z" fill="#F8B68F"/>
<path d="M132.079 117.736L140.431 123.306L137.09 129.991L128.182 125.534L132.079 117.736Z" fill="#212B53"/>
<path d="M137.091 125.534C135.977 127.762 135.977 129.433 137.091 129.433C137.647 129.991 139.318 128.319 139.875 126.648C140.988 124.42 140.988 122.749 139.875 122.749C138.761 122.192 137.647 123.863 137.091 125.534Z" fill="#212B53"/>
<path d="M28.5168 86.5405C30.1872 82.6411 32.9711 77.0707 36.8686 71.5002C42.9933 63.1445 44.6636 58.6881 44.6636 58.6881L133.193 116.621L127.625 127.205L29.0736 90.4398C28.5168 89.3257 28.5168 88.2116 28.5168 86.5405Z" fill="#043C5E"/>
<path d="M164.374 181.238L167.714 200.735H139.318L137.091 176.782L164.374 181.238Z" fill="#F4A086"/>
<path d="M91.4344 230.258C91.4344 230.258 58.0272 219.674 48.0051 205.191C37.4261 190.708 55.2433 113.278 55.2433 113.278L53.0162 99.3518C51.9026 91.5531 58.0272 84.3115 65.8222 84.3115H74.7308C78.6283 84.3115 80.8555 88.2109 79.1851 91.5531L67.4926 117.734C67.4926 117.734 58.584 176.781 70.8333 181.238C85.3098 186.251 102.013 187.922 102.013 187.922L91.4344 230.258Z" fill="#F8B68F"/>
<path d="M153.794 181.238L162.146 162.298L156.578 158.956C152.681 156.17 150.454 151.157 152.124 146.701L158.249 128.875C158.249 128.875 140.988 126.647 141.545 110.493C141.545 102.137 153.238 102.137 153.238 102.137C153.238 102.137 156.578 109.378 167.157 110.493C171.612 109.935 184.418 111.607 192.769 126.09C198.337 136.117 196.11 151.714 191.099 162.855C186.645 173.439 175.509 179.009 164.373 180.68H153.794V181.238Z" fill="#C4C4C4"/>
<path d="M187.759 339.997C187.759 339.997 186.088 380.661 177.18 424.111C174.396 436.923 175.509 450.292 179.963 463.104C199.451 522.151 227.29 610.722 227.29 610.722H202.792C202.792 610.722 146.556 505.997 132.08 454.191C117.603 402.386 115.376 385.675 115.376 385.675L132.637 340.554H187.759V339.997Z" fill="#212B53"/>
<path d="M167.157 153.385C168.271 156.171 166.043 160.07 162.703 162.298C159.362 163.969 155.465 163.412 154.351 160.07C153.237 157.285 155.465 153.385 158.805 151.157C162.703 149.486 166.043 150.043 167.157 153.385Z" fill="#F8B68F"/>
<path d="M107.025 339.996H187.759V236.943C187.759 214.104 170.499 195.164 148.227 193.493L91.9919 186.251C91.9919 186.251 85.3105 196.278 66.9365 219.674C89.208 233.043 114.82 239.728 114.82 239.728L107.025 339.996Z" fill="#EF4366"/>
<path d="M187.759 339.996C187.759 339.996 176.623 381.218 134.308 427.453C127.069 434.694 117.047 449.178 118.718 469.231L127.626 610.164H102.571C102.571 610.164 71.9476 493.184 78.629 435.251C85.3105 377.319 107.582 339.439 107.582 339.439H187.759V339.996Z" fill="#043C5E"/>
<path d="M41.8807 77.0703C37.4264 85.983 31.8585 92.1105 28.5178 90.9964C25.7339 89.3253 26.8474 80.9696 31.3017 72.0568C35.756 63.1441 41.8807 57.0166 44.6647 58.1307C47.4486 59.8018 46.335 68.1575 41.8807 77.0703Z" fill="#63C1C5"/>
<path d="M113.706 103.808L113.15 104.365C110.366 105.479 107.582 106.036 104.798 104.922H104.241C99.7867 103.251 95.8892 99.9088 94.7756 95.4524C94.2188 93.2243 95.8892 91.5531 98.1163 92.1102L103.684 93.2243C105.911 93.7813 107.582 94.8954 109.252 96.5665L113.706 103.808Z" fill="#F8B68F"/>
</g>
<defs>
<clipPath id="clip0">
<rect width="257" height="639" fill="white" transform="matrix(-1 0 0 1 257 0)"/>
</clipPath>
</defs>
</svg>

<?xml version="1.0" encoding="utf-8"?>
<!-- Generator: Adobe Illustrator 23.0.6, SVG Export Plug-In . SVG Version: 6.00 Build 0)  -->
<svg version="1.1" id="Layer_1" xmlns="http://www.w3.org/2000/svg" xmlns:xlink="http://www.w3.org/1999/xlink" x="0px" y="0px"
	 viewBox="0 0 257 639" style="enable-background:new 0 0 257 639;" xml:space="preserve">
<style type="text/css">
	.st0{clip-path:url(#SVGID_2_);}
	.st1{fill:#58C4C5;}
	.st2{fill:#FFFFFF;}
	.st3{fill:#F8B68F;}
	.st4{fill:#212B53;}
	.st5{fill:#043C5E;}
	.st6{fill:#F4A086;}
	.st7{fill:#C4C4C4;}
	.st8{fill:#EF4366;}
	.st9{fill:#63C1C5;}
</style>
<g>
	<defs>
		<rect id="SVGID_1_" width="257" height="639"/>
	</defs>
	<clipPath id="SVGID_2_">
		<use xlink:href="#SVGID_1_"  style="overflow:visible;"/>
	</clipPath>
	<g class="st0">
		<path class="st1" d="M120.9,623H77c-6.1,0.6-12.2,2.2-13.4,7.2c0,0-0.6,3.3-0.6,6.7c1.7,1.7,60.1,0,60.1,0
			C129.3,629.1,120.9,623,120.9,623z"/>
		<path class="st2" d="M62.5,636.9h60.1l-0.6,2.2H62.5V636.9z"/>
		<path class="st2" d="M103.1,623h-3.9l1.7,5h3.3L103.1,623z"/>
		<path class="st2" d="M94.8,623h-3.9l1.1,5h3.9L94.8,623z"/>
		<path class="st3" d="M123.7,607.9l-2.8,14.5c-3.3,1.7-8.4,1.7-11.7,0.6l-0.6-0.6l-2.2-14.5H123.7z"/>
		<path class="st1" d="M223.9,623h-44c-6.1,0.6-12.3,2.2-13.4,7.2c0,0-0.6,3.3-0.6,6.7c1.7,1.7,60.1,0,60.1,0
			C232.3,629.1,223.9,623,223.9,623z"/>
		<path class="st2" d="M165.5,636.9h60.1l-0.6,2.2h-59.6V636.9z"/>
		<path class="st2" d="M206.7,623h-3.9l1.1,5h3.9L206.7,623z"/>
		<path class="st2" d="M197.8,623h-3.9l1.7,5h3.3L197.8,623z"/>
		<path class="st3" d="M222.3,607.9l1.7,14.5c-3.3,1.7-8.4,1.7-11.7,0.6l-0.6-0.6l-7.2-14.5H222.3z"/>
		<path class="st3" d="M156,113.3l36.2,24l-11.1,29c0,0.6-0.6,0.6-0.6,1.1c-0.6,0-1.7,0-2.2,0c0,0,0,0-0.6,0c0,0,0,0-0.6,0
			c-9.5,0-17.8,6.1-23.4,13.9c-6.1-0.6-11.7-1.7-17.3-4.5c-3.9-1.7-6.7-3.9-8.4-6.1C125.4,150,156,113.3,156,113.3z"/>
		<path class="st3" d="M109.8,121.1c0,0-4.5,42.3,4.5,69.1c-3.9,3.3-19.5,20.1-24.5-1.1c-5-21.2,5.6-75.2,5.6-75.2L109.8,121.1z"/>
		<path class="st4" d="M132.1,117.7l8.4,5.6l-3.3,6.7l-8.9-4.5L132.1,117.7z"/>
		<path class="st4" d="M137.1,125.5c-1.1,2.2-1.1,3.9,0,3.9c0.6,0.6,2.2-1.1,2.8-2.8c1.1-2.2,1.1-3.9,0-3.9
			C138.8,122.2,137.6,123.9,137.1,125.5z"/>
		<path class="st5" d="M28.5,86.5c1.7-3.9,4.5-9.5,8.4-15c6.1-8.4,7.8-12.8,7.8-12.8l88.5,57.9l-5.6,10.6L29.1,90.4
			C28.5,89.3,28.5,88.2,28.5,86.5z"/>
		<path class="st6" d="M164.4,181.2l3.3,19.5h-28.4l-2.2-24L164.4,181.2z"/>
		<path class="st3" d="M91.4,230.3c0,0-33.4-10.6-43.4-25.1c-10.6-14.5,7.2-91.9,7.2-91.9L53,99.4c-1.1-7.8,5-15,12.8-15h8.9
			c3.9,0,6.1,3.9,4.5,7.2l-11.7,26.2c0,0-8.9,59,3.3,63.5c14.5,5,31.2,6.7,31.2,6.7L91.4,230.3z"/>
		<path class="st7" d="M153.8,181.2l8.4-18.9l-5.6-3.3c-3.9-2.8-6.1-7.8-4.5-12.3l6.1-17.8c0,0-17.3-2.2-16.7-18.4
			c0-8.4,11.7-8.4,11.7-8.4s3.3,7.2,13.9,8.4c4.5-0.6,17.3,1.1,25.6,15.6c5.6,10,3.3,25.6-1.7,36.8c-4.5,10.6-15.6,16.2-26.7,17.8
			h-10.6V181.2z"/>
		<path class="st4" d="M187.8,340c0,0-1.7,40.7-10.6,84.1c-2.8,12.8-1.7,26.2,2.8,39c19.5,59,47.3,147.6,47.3,147.6h-24.5
			c0,0-56.2-104.7-70.7-156.5c-14.5-51.8-16.7-68.5-16.7-68.5l17.3-45.1h55.1V340z"/>
		<path class="st3" d="M167.2,153.4c1.1,2.8-1.1,6.7-4.5,8.9c-3.3,1.7-7.2,1.1-8.4-2.2c-1.1-2.8,1.1-6.7,4.5-8.9
			C162.7,149.5,166,150,167.2,153.4z"/>
		<path class="st8" d="M107,340h80.7V236.9c0-22.8-17.3-41.8-39.5-43.4L92,186.3c0,0-6.7,10-25.1,33.4
			c22.3,13.4,47.9,20.1,47.9,20.1L107,340z"/>
		<path class="st5" d="M187.8,340c0,0-11.1,41.2-53.5,87.5c-7.2,7.2-17.3,21.7-15.6,41.8l8.9,140.9h-25.1c0,0-30.6-117-23.9-174.9
			c6.7-57.9,29-95.8,29-95.8h80.2V340z"/>
		<path class="st9" d="M41.9,77.1c-4.5,8.9-10,15-13.4,13.9c-2.8-1.7-1.7-10,2.8-18.9c4.5-8.9,10.6-15,13.4-13.9
			C47.4,59.8,46.3,68.2,41.9,77.1z"/>
		<path class="st3" d="M113.7,103.8l-0.6,0.6c-2.8,1.1-5.6,1.7-8.4,0.6h-0.6c-4.5-1.7-8.4-5-9.5-9.5c-0.6-2.2,1.1-3.9,3.3-3.3
			l5.6,1.1c2.2,0.6,3.9,1.7,5.6,3.3L113.7,103.8z"/>
	</g>
</g>
</svg>
